img/block-red.svg

<svg xmlns="http://www.w3.org/2000/svg" style="isolation:isolate" viewBox="0 0 397 417" width="397" height="417"><defs><clipPath id="a"><path d="M0 0h397v417H0z"/></clipPath></defs><g clip-path="url(#a)"><path d="M267.646 131.525l39.616-22.946-39.679-22.836-39.616 22.946 39.679 22.836zm-69.328 40.154l39.616-22.945-39.679-22.836-39.616 22.946 39.679 22.835zm-69.439-39.962l39.616-22.945-39.679-22.836L89.2 108.882l39.679 22.835zm69.328-40.155l39.616-22.945-39.679-22.836-39.616 22.946 39.679 22.835z" fill="#FCFAFA"/><path d="M168.559 154.553l-9.904 5.736 39.679 22.836 39.616-22.946-9.92-5.709-29.712 17.209-29.759-17.126zm69.328-40.155l-9.904 5.736 39.679 22.836 39.616-22.946-9.92-5.709-29.712 17.21-29.759-17.127zm-138.767.193l-9.904 5.736 39.679 22.835 39.616-22.945-9.92-5.709-29.712 17.209-29.759-17.126zm69.327-40.155l-9.903 5.736 39.679 22.836 39.616-22.946-9.92-5.709-29.712 17.209-29.76-17.126z" fill="#EB6D5F"/><path d="M19.856 137.591l168.638 97.051.206 148.789L20.063 286.38l-.207-148.789zM198.112 22.89l168.637 97.052-168.367 97.519L29.744 120.41l168.368-97.52zm178.573 114.206l.207 148.789-168.368 97.519-.206-148.789 168.367-97.519zM198.08 0L0 114.728l.255 183.125 198.397 114.178 198.08-114.728-.255-183.125L198.08 0z" fill="#EB6D5F"/></g></svg>

<?xml version="1.0" standalone="no"?><!-- Generator: Gravit.io --><svg xmlns="http://www.w3.org/2000/svg" xmlns:xlink="http://www.w3.org/1999/xlink" style="isolation:isolate" viewBox="0 0 397 417" width="397" height="417"><defs><clipPath id="_clipPath_5svG26gxV9Lx6tw43JGckXogX93UlGUg"><rect width="397" height="417"/></clipPath></defs><g clip-path="url(#_clipPath_5svG26gxV9Lx6tw43JGckXogX93UlGUg)"><path d=" M 267.646 131.525 L 307.262 108.579 L 267.583 85.743 L 227.967 108.689 L 267.646 131.525 Z " fill="rgb(252,250,250)"/><path d=" M 198.318 171.679 L 237.934 148.734 L 198.255 125.898 L 158.639 148.844 L 198.318 171.679 Z " fill="rgb(252,250,250)"/><path d=" M 128.879 131.717 L 168.495 108.772 L 128.816 85.936 L 89.2 108.882 L 128.879 131.717 Z " fill="rgb(252,250,250)"/><path d=" M 198.207 91.562 L 237.823 68.617 L 198.144 45.781 L 158.528 68.727 L 198.207 91.562 Z " fill="rgb(252,250,250)"/><path d=" M 168.559 154.553 L 158.655 160.289 L 198.334 183.125 L 237.95 160.179 L 228.03 154.47 L 198.318 171.679 L 168.559 154.553 Z " fill="rgb(235,109,95)"/><path d=" M 237.887 114.398 L 227.983 120.134 L 267.662 142.97 L 307.278 120.024 L 297.358 114.315 L 267.646 131.525 L 237.887 114.398 Z " fill="rgb(235,109,95)"/><path d=" M 99.12 114.591 L 89.216 120.327 L 128.895 143.162 L 168.511 120.217 L 158.591 114.508 L 128.879 131.717 L 99.12 114.591 Z " fill="rgb(235,109,95)"/><path d=" M 168.447 74.436 L 158.544 80.172 L 198.223 103.008 L 237.839 80.062 L 227.919 74.353 L 198.207 91.562 L 168.447 74.436 Z " fill="rgb(235,109,95)"/><path d=" M 19.856 137.591 L 188.494 234.642 L 188.7 383.431 L 20.063 286.38 L 19.856 137.591 Z  M 198.112 22.89 L 366.749 119.942 L 198.382 217.461 L 29.744 120.41 L 198.112 22.89 Z  M 376.685 137.096 L 376.892 285.885 L 208.524 383.404 L 208.318 234.615 L 376.685 137.096 Z  M 198.08 0 L 0 114.728 L 0.255 297.853 L 198.652 412.031 L 396.732 297.303 L 396.477 114.178 L 198.08 0 Z " fill="rgb(235,109,95)"/></g></svg>
